X: 6010
T: Cantar De Cervantes
R: slip jig
M: 9/8
K: Gmajor
D G2A|:B3 B3 ABA|G3 G2A B2G|A3 A3 E2F|
ED2D2D G2A|B3 B3 c2B|1 AG2G2 DG2 A:|2 AG2G2 DG2 B]
|:d3 d3 cdc|B3 B2d g2f|e3 e3 d2e|dc2 c2d e2g|
d3d3 cdc|B3 B2c d2B|1 c2A B2G A2F|D3D2D G2B:|2 c2B A2G FED|G3G2||

